source/img/logotypes/logo-visa.svg

<svg width="96" height="64" viewBox="0 0 96 64" fill="none" xmlns="http://www.w3.org/2000/svg">
<rect opacity="0.05" width="96" height="64" rx="8" fill="#E0E0E0"/>
<g clip-path="url(#clip0)">
<path d="M58.8931 24.6551C57.7776 24.213 56.5985 23.9912 55.4112 24C51.5718 24 48.8602 26.1037 48.841 29.1236C48.817 31.3421 50.7679 32.5924 52.2437 33.3336C53.7579 34.0958 54.2642 34.576 54.2594 35.2573C54.2498 36.2935 53.05 36.7633 51.9341 36.7633C50.4008 36.7633 49.5633 36.531 48.2747 35.9489L47.7972 35.7062L47.2525 39.1828C48.1859 39.6056 49.8681 39.9684 51.6054 39.9998C55.6872 39.9998 58.3556 37.9091 58.3868 34.6961C58.4204 32.9238 57.3645 31.5849 55.1425 30.4782C53.7915 29.7604 52.954 29.2802 52.954 28.552C52.954 27.9073 53.6715 27.2182 55.1713 27.2182C56.1694 27.192 57.1614 27.3957 58.082 27.8159L58.442 27.9908L58.9867 24.6316L58.8931 24.6551ZM68.8564 24.2819H65.8569C64.9234 24.2819 64.2203 24.5612 63.8124 25.5687L58.0436 39.7831H62.1254L62.9413 37.4523L67.923 37.4575C68.0405 38.003 68.4005 39.7831 68.4005 39.7831H71.9999L68.8564 24.2819ZM43.3194 24.1514H47.2093L44.776 39.6604H40.891L43.3194 24.1462V24.1514ZM33.4449 32.6994L33.8481 34.8527L37.6491 24.2819H41.7693L35.6478 39.7622H31.5372L28.1777 26.6545C28.1233 26.4383 27.9955 26.2527 27.8202 26.135C26.6093 25.4547 25.3263 24.9384 23.9999 24.5977L24.0527 24.2715H30.3134C31.1629 24.308 31.8468 24.5977 32.0747 25.5843L33.4425 32.7072V32.6994H33.4449ZM64.0571 34.2811L65.6073 29.9431C65.5881 29.9901 65.9265 29.0479 66.1232 28.4658L66.3896 29.8048L67.2894 34.2785H64.0547V34.2811H64.0571Z" fill="#E0E0E0"/>
</g>
<defs>
<clipPath id="clip0">
<rect width="48" height="48" fill="white" transform="translate(24 8)"/>
</clipPath>
</defs>
</svg>

<svg width="96" height="64" fill="none" xmlns="http://www.w3.org/2000/svg"><rect opacity=".05" width="96" height="64" rx="8" fill="#E0E0E0"/><g clip-path="url(#clip0)"><path d="M58.893 24.655A9.253 9.253 0 0055.411 24c-3.84 0-6.55 2.104-6.57 5.124-.024 2.218 1.927 3.468 3.403 4.21 1.514.762 2.02 1.242 2.015 1.923-.01 1.037-1.209 1.506-2.325 1.506-1.533 0-2.37-.232-3.66-.814l-.477-.243-.544 3.477c.933.423 2.615.785 4.352.817 4.082 0 6.75-2.09 6.782-5.304.033-1.772-1.023-3.111-3.245-4.218-1.35-.718-2.188-1.198-2.188-1.926 0-.645.718-1.334 2.217-1.334a6.584 6.584 0 012.911.598l.36.175.545-3.36-.094.024zm9.963-.373h-3c-.933 0-1.636.28-2.044 1.287l-5.768 14.214h4.081l.816-2.33 4.982.005c.117.545.477 2.325.477 2.325H72l-3.144-15.501zm-25.537-.13h3.89L44.776 39.66h-3.885l2.428-15.514v.005zm-9.874 8.547l.403 2.154 3.801-10.571h4.12l-6.121 15.48h-4.11l-3.36-13.108a.882.882 0 00-.358-.519A15.85 15.85 0 0024 24.598l.053-.326h6.26c.85.036 1.534.326 1.762 1.312l1.367 7.123V32.7h.003zm30.612 1.582l1.55-4.338c-.019.047.32-.895.516-1.477l.267 1.339.9 4.474h-3.235v.002h.002z" fill="#E0E0E0"/></g><defs><clipPath id="clip0"><path fill="#fff" transform="translate(24 8)" d="M0 0h48v48H0z"/></clipPath></defs></svg>
